src/Assets/Logo.svg

<svg width="393" height="138" viewBox="0 0 393 138" fill="none" xmlns="http://www.w3.org/2000/svg">
<path d="M366.996 90.4688L358.773 110H355.668L347.465 90.4688H350.922L357.25 106.641L363.598 90.4688H366.996ZM389.828 110H372.23V107.832C374.639 105.775 376.69 103.893 378.383 102.188C380.089 100.482 381.475 98.8997 382.543 97.4414C383.611 95.9831 384.392 94.6094 384.887 93.3203C385.395 92.0312 385.648 90.7812 385.648 89.5703C385.648 88.3073 385.408 87.194 384.926 86.2305C384.444 85.2539 383.773 84.4987 382.914 83.9648C382.055 83.418 381.059 83.1445 379.926 83.1445C378.637 83.1445 377.406 83.5156 376.234 84.2578C375.076 84.987 374.125 85.9961 373.383 87.2852L371.488 85.1562C372.491 83.5677 373.786 82.3307 375.375 81.4453C376.964 80.5599 378.669 80.1172 380.492 80.1172C382.185 80.1172 383.682 80.4948 384.984 81.25C386.286 81.9922 387.309 83.0208 388.051 84.3359C388.793 85.651 389.164 87.168 389.164 88.8867C389.164 90.2799 388.904 91.7188 388.383 93.2031C387.862 94.6745 387.087 96.1784 386.059 97.7148C385.03 99.2383 383.754 100.775 382.23 102.324C380.72 103.874 378.975 105.423 376.996 106.973H389.828V110Z" fill="#1C6048" fill-opacity="0.88"/>
<path d="M58.2642 110H8.40088V28.7012H17.9399V101.545H58.2642V110ZM104.333 111.626C98.2271 111.626 92.5903 110.578 87.4233 108.482C82.2925 106.387 77.8301 103.442 74.0361 99.6479C70.2422 95.8179 67.2974 91.3374 65.2017 86.2065C63.106 81.0396 62.0581 75.4209 62.0581 69.3506C62.0581 63.2441 63.106 57.6255 65.2017 52.4946C67.2974 47.3276 70.2422 42.8472 74.0361 39.0532C77.8301 35.2593 82.2925 32.3145 87.4233 30.2188C92.5903 28.123 98.2271 27.0752 104.333 27.0752C110.44 27.0752 116.059 28.123 121.189 30.2188C126.32 32.3145 130.783 35.2593 134.577 39.0532C138.371 42.8472 141.315 47.3276 143.411 52.4946C145.507 57.6255 146.555 63.2441 146.555 69.3506C146.555 75.4209 145.507 81.0396 143.411 86.2065C141.315 91.3374 138.371 95.8179 134.577 99.6479C130.783 103.442 126.32 106.387 121.189 108.482C116.059 110.578 110.44 111.626 104.333 111.626ZM104.333 103.171C108.995 103.171 113.294 102.322 117.233 100.624C121.208 98.9253 124.658 96.5586 127.585 93.5234C130.512 90.4521 132.77 86.875 134.36 82.792C135.986 78.6729 136.799 74.1924 136.799 69.3506C136.799 64.5088 135.986 60.0283 134.36 55.9092C132.77 51.79 130.512 48.2129 127.585 45.1777C124.658 42.1064 121.208 39.7397 117.233 38.0776C113.294 36.3794 108.995 35.5303 104.333 35.5303C99.6724 35.5303 95.3545 36.3794 91.3799 38.0776C87.4414 39.7397 84.0088 42.1064 81.082 45.1777C78.1553 48.2129 75.8789 51.79 74.2529 55.9092C72.627 60.0283 71.814 64.5088 71.814 69.3506C71.814 74.1924 72.627 78.6729 74.2529 82.792C75.8789 86.9111 78.1553 90.5063 81.082 93.5776C84.0088 96.6128 87.4414 98.9795 91.3799 100.678C95.3545 102.34 99.6724 103.171 104.333 103.171ZM221.187 44.5815C218.188 41.6548 214.665 39.4146 210.618 37.8608C206.571 36.3071 202.29 35.5303 197.773 35.5303C193.076 35.5303 188.758 36.3613 184.819 38.0234C180.881 39.6494 177.466 41.98 174.576 45.0151C171.721 48.0142 169.499 51.5732 167.909 55.6924C166.355 59.8115 165.579 64.3462 165.579 69.2964C165.579 74.2104 166.355 78.7451 167.909 82.9004C169.463 87.0195 171.649 90.5967 174.467 93.6318C177.286 96.667 180.628 99.0156 184.494 100.678C188.36 102.34 192.606 103.171 197.231 103.171C201.495 103.171 205.415 102.466 208.992 101.057C212.605 99.6118 215.767 97.5884 218.477 94.9868C221.223 92.3491 223.427 89.2236 225.089 85.6104C226.788 81.9609 227.835 77.9502 228.233 73.5781H198.423V66.0444H236.688L236.959 69.5674C236.959 75.7461 235.983 81.4009 234.032 86.5317C232.117 91.6626 229.389 96.1069 225.848 99.8647C222.307 103.623 218.116 106.531 213.274 108.591C208.432 110.614 203.103 111.626 197.285 111.626C191.323 111.626 185.813 110.578 180.754 108.482C175.732 106.351 171.342 103.388 167.584 99.5938C163.862 95.7998 160.972 91.3555 158.912 86.2607C156.853 81.1299 155.823 75.5474 155.823 69.5132C155.823 63.4429 156.871 57.8242 158.966 52.6572C161.062 47.4902 163.989 42.9917 167.747 39.1616C171.504 35.3315 175.931 32.3687 181.025 30.2729C186.12 28.1411 191.667 27.0752 197.665 27.0752C203.337 27.0752 208.721 28.0508 213.816 30.002C218.947 31.9531 223.5 34.7534 227.474 38.4028L221.187 44.5815ZM288.502 111.626C282.396 111.626 276.759 110.578 271.592 108.482C266.461 106.387 261.999 103.442 258.205 99.6479C254.411 95.8179 251.466 91.3374 249.371 86.2065C247.275 81.0396 246.227 75.4209 246.227 69.3506C246.227 63.2441 247.275 57.6255 249.371 52.4946C251.466 47.3276 254.411 42.8472 258.205 39.0532C261.999 35.2593 266.461 32.3145 271.592 30.2188C276.759 28.123 282.396 27.0752 288.502 27.0752C294.609 27.0752 300.228 28.123 305.358 30.2188C310.489 32.3145 314.952 35.2593 318.746 39.0532C322.54 42.8472 325.484 47.3276 327.58 52.4946C329.676 57.6255 330.724 63.2441 330.724 69.3506C330.724 75.4209 329.676 81.0396 327.58 86.2065C325.484 91.3374 322.54 95.8179 318.746 99.6479C314.952 103.442 310.489 106.387 305.358 108.482C300.228 110.578 294.609 111.626 288.502 111.626ZM288.502 103.171C293.164 103.171 297.463 102.322 301.402 100.624C305.376 98.9253 308.827 96.5586 311.754 93.5234C314.681 90.4521 316.939 86.875 318.529 82.792C320.155 78.6729 320.968 74.1924 320.968 69.3506C320.968 64.5088 320.155 60.0283 318.529 55.9092C316.939 51.79 314.681 48.2129 311.754 45.1777C308.827 42.1064 305.376 39.7397 301.402 38.0776C297.463 36.3794 293.164 35.5303 288.502 35.5303C283.841 35.5303 279.523 36.3794 275.549 38.0776C271.61 39.7397 268.178 42.1064 265.251 45.1777C262.324 48.2129 260.048 51.79 258.422 55.9092C256.796 60.0283 255.983 64.5088 255.983 69.3506C255.983 74.1924 256.796 78.6729 258.422 82.792C260.048 86.9111 262.324 90.5063 265.251 93.5776C268.178 96.6128 271.61 98.9795 275.549 100.678C279.523 102.34 283.841 103.171 288.502 103.171Z" fill="url(#paint0_linear_207_83)"/>
<defs>
<linearGradient id="paint0_linear_207_83" x1="168" y1="0" x2="168" y2="138" gradientUnits="userSpaceOnUse">
<stop offset="0.114583" stop-color="#D7DBDA"/>
<stop offset="1" stop-color="#0B4732" stop-opacity="0.6"/>
</linearGradient>
</defs>
</svg>

<svg xmlns="http://www.w3.org/2000/svg" fill="none" width="393" height="138" viewBox="0 0 393 138"><path d="M366.996 90.469 358.773 110h-3.105l-8.203-19.531h3.457l6.328 16.172 6.348-16.172h3.398ZM389.828 110H372.23v-2.168c2.409-2.057 4.46-3.939 6.153-5.644 1.706-1.706 3.092-3.288 4.16-4.747 1.068-1.458 1.849-2.832 2.344-4.12.508-1.29.761-2.54.761-3.75 0-1.264-.24-2.377-.722-3.34-.482-.977-1.153-1.732-2.012-2.266-.859-.547-1.855-.82-2.988-.82-1.289 0-2.52.37-3.692 1.113-1.158.729-2.109 1.738-2.851 3.027l-1.895-2.129c1.003-1.588 2.298-2.825 3.887-3.71a10.344 10.344 0 0 1 5.117-1.329c1.693 0 3.19.378 4.492 1.133a8.027 8.027 0 0 1 3.067 3.086c.742 1.315 1.113 2.832 1.113 4.55 0 1.394-.26 2.833-.781 4.317-.521 1.471-1.296 2.975-2.324 4.512-1.029 1.523-2.305 3.06-3.829 4.609-1.51 1.55-3.255 3.099-5.234 4.649h12.832V110Z" fill="#1C6048" fill-opacity=".88"/><path d="M58.264 110H8.401V28.701h9.539v72.844h40.324V110Zm46.069 1.626c-6.106 0-11.743-1.048-16.91-3.144-5.13-2.095-9.593-5.04-13.387-8.834-3.794-3.83-6.739-8.31-8.834-13.441-2.096-5.167-3.144-10.786-3.144-16.856 0-6.107 1.048-11.725 3.144-16.856 2.095-5.167 5.04-9.648 8.834-13.442 3.794-3.794 8.257-6.738 13.387-8.834 5.167-2.096 10.804-3.144 16.91-3.144 6.107 0 11.726 1.048 16.856 3.144 5.131 2.096 9.594 5.04 13.388 8.834 3.794 3.794 6.738 8.275 8.834 13.442 2.096 5.13 3.144 10.75 3.144 16.856 0 6.07-1.048 11.689-3.144 16.856-2.096 5.13-5.04 9.61-8.834 13.44-3.794 3.795-8.257 6.74-13.388 8.835-5.13 2.096-10.749 3.144-16.856 3.144Zm0-8.455c4.662 0 8.961-.849 12.9-2.547 3.975-1.699 7.425-4.065 10.352-7.1 2.927-3.072 5.185-6.649 6.775-10.732 1.626-4.12 2.439-8.6 2.439-13.441 0-4.842-.813-9.323-2.439-13.442-1.59-4.119-3.848-7.696-6.775-10.731-2.927-3.072-6.377-5.438-10.352-7.1-3.939-1.699-8.238-2.548-12.9-2.548-4.66 0-8.978.85-12.953 2.548a30.394 30.394 0 0 0-10.298 7.1c-2.927 3.035-5.203 6.612-6.83 10.731-1.625 4.12-2.438 8.6-2.438 13.442 0 4.841.813 9.322 2.439 13.441 1.626 4.12 3.902 7.714 6.829 10.786 2.927 3.035 6.36 5.401 10.298 7.1 3.975 1.662 8.292 2.493 12.953 2.493Zm116.854-58.59c-2.999-2.926-6.522-5.166-10.569-6.72-4.047-1.554-8.328-2.33-12.845-2.33-4.697 0-9.015.83-12.954 2.492-3.938 1.626-7.353 3.957-10.243 6.992-2.855 3-5.077 6.558-6.667 10.677-1.554 4.12-2.33 8.654-2.33 13.604 0 4.914.776 9.45 2.33 13.604 1.554 4.12 3.74 7.697 6.558 10.732 2.819 3.035 6.161 5.384 10.027 7.046 3.866 1.662 8.112 2.493 12.737 2.493 4.264 0 8.184-.705 11.761-2.114 3.613-1.445 6.775-3.469 9.485-6.07 2.746-2.638 4.95-5.763 6.612-9.377 1.699-3.65 2.746-7.66 3.144-12.032h-29.81v-7.534h38.265l.271 3.523c0 6.18-.976 11.834-2.927 16.965-1.915 5.13-4.643 9.575-8.184 13.333-3.541 3.758-7.732 6.666-12.574 8.726-4.842 2.023-10.171 3.035-15.989 3.035-5.962 0-11.472-1.048-16.531-3.144-5.022-2.131-9.412-5.094-13.17-8.888-3.722-3.794-6.612-8.238-8.672-13.333-2.059-5.131-3.089-10.714-3.089-16.748 0-6.07 1.048-11.689 3.143-16.856 2.096-5.167 5.023-9.665 8.781-13.495 3.757-3.83 8.184-6.793 13.278-8.89 5.095-2.13 10.642-3.197 16.64-3.197 5.672 0 11.056.976 16.151 2.927 5.131 1.951 9.684 4.751 13.658 8.4l-6.287 6.18Zm67.315 67.045c-6.106 0-11.743-1.048-16.91-3.144-5.131-2.095-9.593-5.04-13.387-8.834-3.794-3.83-6.739-8.31-8.834-13.441-2.096-5.167-3.144-10.786-3.144-16.856 0-6.107 1.048-11.725 3.144-16.856 2.095-5.167 5.04-9.648 8.834-13.442 3.794-3.794 8.256-6.738 13.387-8.834 5.167-2.096 10.804-3.144 16.91-3.144 6.107 0 11.726 1.048 16.856 3.144 5.131 2.096 9.594 5.04 13.388 8.834 3.794 3.794 6.738 8.275 8.834 13.442 2.096 5.13 3.144 10.75 3.144 16.856 0 6.07-1.048 11.689-3.144 16.856-2.096 5.13-5.04 9.61-8.834 13.44-3.794 3.795-8.257 6.74-13.388 8.835-5.13 2.096-10.749 3.144-16.856 3.144Zm0-8.455c4.662 0 8.961-.849 12.9-2.547 3.974-1.699 7.425-4.065 10.352-7.1 2.927-3.072 5.185-6.649 6.775-10.732 1.626-4.12 2.439-8.6 2.439-13.441 0-4.842-.813-9.323-2.439-13.442-1.59-4.119-3.848-7.696-6.775-10.731-2.927-3.072-6.378-5.438-10.352-7.1-3.939-1.699-8.238-2.548-12.9-2.548-4.661 0-8.979.85-12.953 2.548a30.391 30.391 0 0 0-10.298 7.1c-2.927 3.035-5.203 6.612-6.829 10.731-1.626 4.12-2.439 8.6-2.439 13.442 0 4.841.813 9.322 2.439 13.441 1.626 4.12 3.902 7.714 6.829 10.786 2.927 3.035 6.359 5.401 10.298 7.1 3.974 1.662 8.292 2.493 12.953 2.493Z" fill="url(#a)"/><defs><linearGradient id="a" x1="168" x2="168" y1="0" y2="138" gradientUnits="userSpaceOnUse"><stop offset=".115" stop-color="#D7DBDA"/><stop offset="1" stop-color="#0B4732" stop-opacity=".6"/></linearGradient></defs></svg>
